src/assets/duotone/Hex.svg

<svg width="24" height="24" viewBox="0 0 24 24"  xmlns="http://www.w3.org/2000/svg">
<path opacity="0.4" d="M17 3.33984H7L2 11.9998L7 20.6598H17L22 11.9998L17 3.33984Z" />
<path d="M10.8701 14H7.03009L5.1001 17.33L7.03009 20.66H10.8701L12.8001 17.33L10.8701 14Z" />
<path opacity="0.6" d="M14.3399 8H7.02988L3.37988 14.33L7.02988 20.66H14.3399L17.9999 14.33L14.3399 8Z" />
</svg>

<?xml version="1.0" encoding="UTF-8"?>
<svg width="24" height="24" viewBox="0 0 24 24" xmlns="http://www.w3.org/2000/svg">
 <path d="m17 3.3398h-10l-5 8.66 5 8.66h10l5-8.66-5-8.66z" opacity=".4"/>
 <path d="m10.87 14h-3.84l-1.93 3.33 1.93 3.33h3.84l1.93-3.33-1.93-3.33z"/>
 <path d="m14.34 8h-7.31l-3.65 6.33 3.65 6.33h7.31l3.66-6.33-3.66-6.33z" opacity=".6"/>
</svg>
